X: 1
T: Barbados Bells
Z: bdh
S: https://thesession.org/tunes/9573#setting9573
R: polka
M: 2/4
L: 1/8
K: Dmaj
AB |: d2 d2 | e2 de | f2 d2 | d2 ed |
B2 e2 | ef ed | c2 A2 | A2 AB |
d2 d2 | e2 de | f2 ed | c2 BA |
B2 g2 | fe dc | d2-d2 |1 d2 AB :|2 d2 fg ||
|: a2 d2 | d2 fd | g2 e2 | e2 fg |
f2 B2 | B2 cd | ef ed | c2 BA |
a2 d2 | d2 fd | g2 e2 | e2 fg |
f2 ed | e2 dB | d2-d2 |1 d2 fg :|2 d2-d2 ||
